X: 2279
T: the IRISH GIRL
R: Irish Jig.
%R: jig
B: James Kerr "Merry Melodies" v.2 p.30 #279
Z: 2016 John Chambers <jc:trillian.mit.edu>
M: 6/8
L: 1/8
K: Bb
|:\
vF2vG uB2uc | d2d- dcB | d2d- dcB | cBc dBG |\
F2G B2c | e2e- efg | fdB (c2B) | G3 B3 :|
|:\
def fdB | efg gab | def fdB | cAF (F2e) |\
def fdB | efg gab | fdB (c2B) | G3 B3 :|
